material/.icons/material/buddhism.svg

<svg xmlns="http://www.w3.org/2000/svg" viewBox="0 0 24 24"><path d="M11 2v1c-1.73.2-3.31.9-4.6 1.94l-.76-.76L4.22 5.6l.78.75A9.043 9.043 0 003 11H2v2h1c.21 1.68.9 3.26 2 4.56l-.78.76 1.42 1.42.75-.74A9.304 9.304 0 0011 21v1h2v-1a9.27 9.27 0 004.6-2l.76.74 1.42-1.42-.78-.75c1.1-1.3 1.79-2.89 2-4.57h1v-2h-1a9.01 9.01 0 00-2-4.64l.78-.76-1.42-1.42-.75.76A8.997 8.997 0 0013 3V2h-2m0 3v3l-1 .5-2.19-2.15c.91-.68 2-1.18 3.19-1.35m2 0c1.16.18 2.26.64 3.2 1.35L14 8.5 13 8V5M6.4 7.76L8.5 10 8 11H5c.16-1.16.7-2.3 1.39-3.25l.01.01m11.2 0c.73.95 1.21 2.06 1.4 3.24h-3l-.5-1 2.11-2.24h-.01M12 10c1.12 0 2 .88 2 2s-.88 2-2 2-2-.88-2-2 .88-2 2-2m-7 3h3l.57 1-2.18 2.15C5.67 15.24 5.19 14.16 5 13m11 0h3a6.984 6.984 0 01-1.39 3.16L15.5 14l.5-1m-6 2.5l1 .5v3a7.04 7.04 0 01-3.2-1.43L10 15.5m4 0l2.19 2.07c-.91.68-2 1.26-3.19 1.43v-3l1-.5z"/></svg>

<?xml version="1.0" encoding="UTF-8"?><!DOCTYPE svg PUBLIC "-//W3C//DTD SVG 1.1//EN" "http://www.w3.org/Graphics/SVG/1.1/DTD/svg11.dtd"><svg xmlns="http://www.w3.org/2000/svg" xmlns:xlink="http://www.w3.org/1999/xlink" version="1.1" id="mdi-buddhism" width="24" height="24" viewBox="0 0 24 24"><path d="M11,2V3C9.27,3.2 7.69,3.9 6.4,4.94L5.64,4.18L4.22,5.6L5,6.35C3.9,7.68 3.21,9.3 3,11H2V13H3C3.21,14.68 3.9,16.26 5,17.56L4.22,18.32L5.64,19.74L6.39,19C7.71,20.07 9.3,20.77 11,21V22H13V21C14.69,20.77 16.29,20.07 17.6,19L18.36,19.74L19.78,18.32L19,17.57C20.1,16.27 20.79,14.68 21,13H22V11H21C20.79,9.3 20.1,7.69 19,6.36L19.78,5.6L18.36,4.18L17.61,4.94C16.29,3.87 14.69,3.2 13,3V2H11M11,5V8L10,8.5L7.81,6.35C8.72,5.67 9.81,5.17 11,5M13,5C14.16,5.18 15.26,5.64 16.2,6.35L14,8.5L13,8V5M6.4,7.76L8.5,10L8,11H5C5.16,9.84 5.7,8.7 6.39,7.75L6.4,7.76M17.6,7.76C18.33,8.71 18.81,9.82 19,11H16L15.5,10L17.61,7.76H17.6M12,10C13.12,10 14,10.88 14,12C14,13.12 13.12,14 12,14C10.88,14 10,13.12 10,12C10,10.88 10.88,10 12,10M5,13H8L8.57,14L6.39,16.15C5.67,15.24 5.19,14.16 5,13V13M16,13H19C18.81,14.15 18.33,15.24 17.61,16.16L15.5,14L16,13M10,15.5L11,16V19C9.83,18.8 8.73,18.31 7.8,17.57L10,15.5M14,15.5L16.19,17.57C15.28,18.25 14.19,18.83 13,19V16L14,15.5Z" /></svg>
